dist/images/ignore/icon-copy.svg

<svg xmlns="http://www.w3.org/2000/svg" width="13" height="13" viewBox="0 0 13 13"><path fill="#A2AFBA" d="M7 5h3v1h-3v-1zm0 2h3v1h-3v-1z"/><path fill="#8596A5" d="M0 2v11h9v-8l-3-3h-6zm7 9h-5v-7h3v2h2v5zm-3-8h2v-1h3v2h2v5h-2v2h4v-8l-3-3h-6"/><path fill="#A2AFBA" d="M3 5h1v1h-1v-1zm0 2h3v1h-3v-1zm0 2h3v1h-3v-1z"/></svg>

<svg xmlns="http://www.w3.org/2000/svg" width="13" height="13" viewBox="0 0 13 13"><path fill="#A2AFBA" d="M7 5h3v1H7V5zm0 2h3v1H7V7z"/><path fill="#8596A5" d="M0 2v11h9V5L6 2H0zm7 9H2V4h3v2h2v5zM4 3h2V2h3v2h2v5H9v2h4V3l-3-3H4"/><path fill="#A2AFBA" d="M3 5h1v1H3V5zm0 2h3v1H3V7zm0 2h3v1H3V9z"/></svg>
